lib/brands/icons/meteor.svg

<svg xmlns="http://www.w3.org/2000/svg" fill="none" aria-hidden="true" viewBox="0 0 48 48"><g id="meteor-Icon"><g id="Union"><path fill="#DF4F4F" d="M8 8.31195L35.4047 37.3402C35.4047 37.3402 36.3384 37.9987 37.0523 37.2304C37.7663 36.4622 37.2171 35.694 37.2171 35.694L8 8.31195Z"/><path fill="#DF4F4F" d="M16.6773 11.0556L37.5466 33.5539C37.5466 33.5539 38.4802 34.2124 39.1942 33.4442C39.9081 32.6759 39.3589 31.9077 39.3589 31.9077L16.6773 11.0556Z"/><path fill="#DF4F4F" d="M31.4505 39.4254L10.5812 16.9271L33.2629 37.7792C33.2629 37.7792 33.8121 38.5474 33.0981 39.3157C32.3842 40.0839 31.4505 39.4254 31.4505 39.4254Z"/><path fill="#DF4F4F" d="M24.0127 13.4152L38.5929 29.1334C38.5929 29.1334 39.2452 29.5935 39.744 29.0567C40.2428 28.52 39.8591 27.9833 39.8591 27.9833L24.0127 13.4152Z"/><path fill="#DF4F4F" d="M27.1697 39.4497L12.5895 23.7315L28.4359 38.2996C28.4359 38.2996 28.8195 38.8363 28.3207 39.373C27.8219 39.9097 27.1697 39.4497 27.1697 39.4497Z"/><path fill="#DF4F4F" d="M31.5055 16.8174L38.1137 23.963C38.1137 23.963 38.4363 24.1786 38.6831 23.9271C38.9298 23.6756 38.74 23.4241 38.74 23.4241L31.5055 16.8174Z"/><path fill="#DF4F4F" d="M22.8461 38.1205L16.2379 30.9748L23.4725 37.5816C23.4725 37.5816 23.6622 37.8331 23.4155 38.0846C23.1688 38.336 22.8461 38.1205 22.8461 38.1205Z"/></g></g></svg>

<svg xmlns="http://www.w3.org/2000/svg" fill="none" aria-hidden="true" viewBox="0 0 48 48"><path fill="#DF4F4F" d="M8 8.312 35.405 37.34s.933.659 1.647-.11c.714-.768.165-1.536.165-1.536L8 8.312Zm8.677 2.744 20.87 22.498s.933.658 1.647-.11.165-1.536.165-1.536L16.677 11.056ZM31.45 39.425 10.582 16.927 33.263 37.78s.55.768-.165 1.537c-.714.768-1.647.11-1.647.11Zm-7.437-26.01 14.58 15.718s.652.46 1.151-.076c.499-.537.115-1.074.115-1.074L24.013 13.415ZM27.17 39.45 12.59 23.73 28.435 38.3s.384.536-.115 1.073c-.5.537-1.151.077-1.151.077Zm4.336-22.633 6.608 7.146s.322.216.57-.036c.246-.251.056-.503.056-.503l-7.235-6.607Zm-8.66 21.303-6.608-7.145 7.235 6.607s.19.251-.057.503c-.247.251-.57.035-.57.035Z"/></svg>
